X: 61
T: 5 In A Line
R: hornpipe
M: 4/4
K: Adorian
ed|c2 Bc AB cA|BG EF G2 (3Bcd|e=f ed cd e^f|ge dc d=f ed|
c2 Bc AB cA|BG EF G2 ed|c2 BA GA BG|A4 A2 ed|
c2 Bc AB cA|BG EF G2 (3Bcd|e=f ed cd e^f|ge dc d=f ed|
c2 Bc AB cA|BG EF G2 ed|c2 BA GA BG|A4 A4||
ea ab ag ed|e=f ed c2 A2|g2 fg ag ec|dc AF G2 FG|
AG AB cB cd|ed (3efg a2>b2|ag ed cd ef|ge dc d=f ed|
c2 Bc AB cA|BG EF G2 ed|c2 BA GA BG|A4 A2>d2|
ea ab ag ed|e=f ed c2 A2|g2 fg ag ec|dc AF G2 FG|
AG AB cB cd|ed (3efg a2>b2|ag ed cd ef|ge dc d=f ed|
c2 Bc AB cA|BG EF G2 ed|c2 BA GA BG|A4 A4||

